!!!COM: Corelli, Arcangelo
!!!OTL: 
!!!ONM: Opus 3, No. 12
!!!OMV: 2
!!!CDT: 1653/2/17/-1713/1/8/
!!!OCY: Italia
**kern	**kern	**kern	**kern
*clefC	*clefC	*clefG	*clefG
*k[f#c#]	*k[f#c#]	*k[f#c#]	*k[f#c#]
*b:	*b:	*b:	*b:
*M3/4	*M3/4	*M3/4	*M3/4
=1	=1	=1	=1
[2.E	[2.E	2.r	8r
.	.	.	8gg#
.	.	.	8bb
.	.	.	8gg#
.	.	.	8ee
.	.	.	8gg#
=2	=2	=2	=2
2.E_	2.E_	2.r	8b
.	.	.	8ee
.	.	.	8gg#
.	.	.	8ee
.	.	.	8b
.	.	.	8ee
=3	=3	=3	=3
2.E_	2.E_	2.r	8g#
.	.	.	8b
.	.	.	8ee
.	.	.	8b
.	.	.	8g#
.	.	.	8b
=4	=4	=4	=4
2.E_	2.E_	2.r	8e
.	.	.	8g#
.	.	.	8b
.	.	.	8g#
.	.	.	8e
.	.	.	8g#
=5	=5	=5	=5
2.E_	2.E_	2.r	8B
.	.	.	8e
.	.	.	8g#
.	.	.	8e
.	.	.	8B
.	.	.	8e
=6	=6	=6	=6
2.E_	2.E_	8r	2.G#
.	.	8gg#	.
.	.	8bb	.
.	.	8gg#	.
.	.	8ee	.
.	.	8gg#	.
=7	=7	=7	=7
2.E_	2.E_	8b	2.r
.	.	8ee	.
.	.	8gg#	.
.	.	8ee	.
.	.	8b	.
.	.	8ee	.
=8	=8	=8	=8
2.E_	2.E_	8g#	2.r
.	.	8b	.
.	.	8ee	.
.	.	8b	.
.	.	8g#	.
.	.	8b	.
=9	=9	=9	=9
2.E_	2.E_	8e	2.r
.	.	8g#	.
.	.	8b	.
.	.	8g#	.
.	.	8e	.
.	.	8g#	.
=10	=10	=10	=10
2.E_	2.E_	8B	2.r
.	.	8e	.
.	.	8g#	.
.	.	8e	.
.	.	8B	.
.	.	8e	.
=11	=11	=11	=11
2.E_	2.E_	2.G#	8r
.	.	.	8bb
.	.	.	8aa
.	.	.	8gg#
.	.	.	8ff#
.	.	.	8aa
=12	=12	=12	=12
2.E_	2.E_	8r	8gg#
.	.	8bb	8gg#
.	.	8aa	8ff#
.	.	8gg#	8ee
.	.	8ff#	8dd#
.	.	8aa	8ff#
=13	=13	=13	=13
2.E_	2.E_	8gg#	8ee
.	.	8gg#	8bb
.	.	8ff#	8aa
.	.	8ee	8gg#
.	.	8dd#	8ff#
.	.	8ff#	8aa
=14	=14	=14	=14
2.E_	2.E_	8ee	8gg#
.	.	8bb	8gg#
.	.	8aa	8ff#
.	.	8gg#	8ee
.	.	8ff#	8dd#
.	.	8aa	8ff#
=15	=15	=15	=15
2.E_	2.E_	8gg#	8ee
.	.	8gg#	8ee
.	.	8ff#	8dd#
.	.	8ee	8cc#
.	.	8dd#	8b
.	.	8cc#	8a
=16	=16	=16	=16
2.E_	2.E_	8b	8g#
.	.	8ee	8cc#
.	.	8dd#	8b
.	.	8cc#	8a
.	.	8b	8g#
.	.	8a	8f#
=17	=17	=17	=17
2.E_	2.E_	8g#	4e
.	.	8cc#	.
.	.	8b	4B
.	.	8a	.
.	.	8g#	4e
.	.	8f#	.
=18	=18	=18	=18
2.E_	2.E_	4e	4g#
.	.	4B	4G#
.	.	4e	4r
=19	=19	=19	=19
2.E_	2.E_	4g#	4r
.	.	4G#	4e
.	.	4r	4g#
=20	=20	=20	=20
2.E_	2.E_	4r	4b
.	.	4e	4B
.	.	4g#	4r
=21	=21	=21	=21
2.E_	2.E_	4b	4r
.	.	4B	4g#
.	.	4r	4b
=22	=22	=22	=22
2.E_	2.E_	4r	4ee
.	.	4g#	4e
.	.	4b	4r
=23	=23	=23	=23
2.E_	2.E_	4ee	4r
.	.	4e	4b
.	.	4r	4ee
=24	=24	=24	=24
2.E_	2.E_	4r	4gg#
.	.	4b	4g#
.	.	4ee	4r
=25	=25	=25	=25
2.E_	2.E_	4gg#	4r
.	.	4g#	4ee
.	.	4r	4gg#
=26	=26	=26	=26
2.E_	2.E_	4r	4bb
.	.	4ee	4b
.	.	4gg#	4r
=27	=27	=27	=27
2.E_	2.E_	4bb	4r
.	.	4b	4gg#
.	.	4r	4bb
=28	=28	=28	=28
2.E_	2.E_	4r	2eee
.	.	4gg#	.
.	.	4bb	4r
=29	=29	=29	=29
2.E_	2.E_	2eee	8r
.	.	.	8bb
.	.	.	8gg#
.	.	.	8ee
.	.	4r	8b
.	.	.	8g#
=30	=30	=30	=30
2.E_	2.E_	8r	2e
.	.	8bb	.
.	.	8gg#	.
.	.	8ee	.
.	.	8b	4r
.	.	8g#	.
=31	=31	=31	=31
2.E_	2.E_	2e	8r
.	.	.	8gg#
.	.	.	8ee
.	.	.	8b
.	.	4r	8g#
.	.	.	8e
=32	=32	=32	=32
2.E_	2.E_	8r	2B
.	.	8gg#	.
.	.	8ee	.
.	.	8b	.
.	.	8g#	4r
.	.	8e	.
=33	=33	=33	=33
2.E_	2.E_	2B	8r
.	.	.	8ee
.	.	.	8b
.	.	.	8g#
.	.	4r	8e
.	.	.	8B
=34	=34	=34	=34
2.E_	2.E_	8r	2G#
.	.	8ee	.
.	.	8b	.
.	.	8g#	.
.	.	8e	4r
.	.	8B	.
=35	=35	=35	=35
2.E_	2.E_	4.G#	8r
.	.	.	8bb
.	.	.	8gg#
.	.	4.r	8ee
.	.	.	8gg#
.	.	.	8ee
=36	=36	=36	=36
2.E_	2.E_	8r	8b
.	.	8bb	8gg#
.	.	8gg#	8ee
.	.	8ee	8b
.	.	8gg#	8ee
.	.	8ee	8b
=37	=37	=37	=37
2.E_	2.E_	8b	8g#
.	.	8gg#	8ee
.	.	8ee	8b
.	.	8b	8g#
.	.	8ee	8b
.	.	8b	8g#
=38	=38	=38	=38
2.E_	2.E_	8g#	8e
.	.	8ee	8gg#
.	.	8b	8ee
.	.	8g#	8b
.	.	8b	8ee
.	.	8g#	8b
=39	=39	=39	=39
2.E_	2.E_	8e	8g#
.	.	8gg#	8bb
.	.	8ee	8gg#
.	.	8b	8ee
.	.	8gg#	8bb
.	.	8ee	8gg#
=40	=40	=40	=40
2.E_	2.E_	8b	8ee
.	.	8bb	8gg#
.	.	8gg#	8ee
.	.	8ee	8b
.	.	8bb	8gg#
.	.	8gg#	8ee
=41	=41	=41	=41
2.E]	2.E]	8ee	8b
.	.	8gg#	8bb
.	.	8ee	8gg#
.	.	8b	8ee
.	.	8gg#	8bb
.	.	8ee	8gg#
==	==	==	==
*-	*-	*-	*-
!!!RWG: This file only contains pitch and duration data.
!!!RWG: Transposing instruments are not transposed.
!!!RWG: Durations of rests and tied notes may be interpreted.
!!!RWG: Key is interpreted using the Humdrum key tool.
!!!SCA: 
!!!YOR: Chrysander Edition
!!!AGN: chamber
!!!AFT: stage1
!!!ENC: F. Bennion
!!!END: 1997/04/15
!!!AST: baroque
!!!YEC: Copyright 1994, Center for Computer Assisted Research in the Humanities
!!!YEM: Rights to all derivative electronic formats reserved.
!!!YEM: Refer to licensing agreement for further details.
!!!YEN: United States of America
!!!EED: W.B. Hewlett
!!!KEY: 3945803254
!!!EMD: Converted from MuseData to Humdrum Aug 9, 1999, by Bret Aarden using muse2kern.
!!!VTS: 3062464962
